X: 8431
T: Crabs In The Skillet
R: jig
M: 6/8
K: Gminor
|:DGG ABc|cdB ~c3|Add cBA|dcB AGF|
D2 G ABc|cdB ~c3|cAc fed|1 cAF G2 F:|2 cAF GBd||
|:~g3 ~g3|fag fed|cde fed|cde fed|
[BD]gg gag|(3fga g fed|cde fed|1 cAF GBd:|2 cAF GDB,||
|:G,B,D GBd|~c3 dcA|~B3 Adc|AGF DCB,|
G,B,D GBd|~c3 dcA|~B3 Adc|1 AGF G2 G,:|AGF G2 D||
|:G,B,D GBd|~c3 dcA|~B3 Adc|AGF DCB,|
G,A,B, A,B,C|B,CD CD=E|DGA dcA|dcA G3||

